images/icons/terminal.svg

<?xml version="1.0" encoding="UTF-8" standalone="no"?>
<svg width="108px" height="80px" viewBox="0 0 108 80" version="1.1" xmlns="http://www.w3.org/2000/svg" xmlns:xlink="http://www.w3.org/1999/xlink" xmlns:sketch="http://www.bohemiancoding.com/sketch/ns">
    <!-- Generator: Sketch 3.4 (15575) - http://www.bohemiancoding.com/sketch -->
    <title>Terminal</title>
    <desc>Created with Sketch.</desc>
    <defs></defs>
    <g id="Website" stroke="none" stroke-width="1" fill="none" fill-rule="evenodd" sketch:type="MSPage">
        <g id="Desktop-HD" sketch:type="MSArtboardGroup" transform="translate(-346.000000, -1022.000000)" fill="#000000">
            <g id="Services" sketch:type="MSLayerGroup" transform="translate(100.000000, 928.000000)">
                <g id="Terminal-+-Don’t-let-our-profes-Copy-+-DEVELOPMENT" transform="translate(0.000000, 94.000000)" sketch:type="MSShapeGroup">
                    <g id="Terminal" transform="translate(246.000000, 0.000000)">
                        <path d="M23.5662898,21.5216462 C23.6977648,21.0402606 23.5728734,20.5053266 23.1952902,20.1269775 L14.4467354,11.3606771 C13.8959796,10.8088041 12.9794173,10.7992726 12.4199659,11.3598588 C11.8566141,11.9243532 11.8608802,12.8297012 12.4207827,13.3907394 L20.5314792,21.5178877 L12.4221811,29.6436346 C11.8714253,30.1955077 11.861913,31.1139291 12.4213644,31.6745153 C12.9847162,32.2390099 13.8882315,32.2347352 14.448134,31.673697 L23.1966887,22.9073966 C23.56588,22.5374564 23.6918636,22.0028079 23.5662898,21.5216462 L23.5662898,21.5216462 L23.5662898,21.5216462 Z M0,11.0396648 C0,4.94262634 4.927775,0 11.0107396,0 L96.3576814,0 C102.438745,0 107.368421,4.94398552 107.368421,11.0396648 L107.368421,68.9603352 C107.368421,75.0573737 102.440646,80 96.3576814,80 L11.0107396,80 C4.92967597,80 0,75.0560145 0,68.9603352 L0,11.0396648 L0,11.0396648 Z M25.6551128,30.7591141 C25.6551128,30.0912709 26.1951383,29.5498771 26.8600946,29.5498771 L40.1383896,29.5498771 C40.8038826,29.5498771 41.3433712,30.0866149 41.3433712,30.7591141 C41.3433712,31.4269572 40.8033459,31.968351 40.1383896,31.968351 L26.8600946,31.968351 C26.1946016,31.968351 25.6551128,31.4316132 25.6551128,30.7591141 L25.6551128,30.7591141 Z" id="Shape"></path>
                    </g>
                </g>
            </g>
        </g>
    </g>
</svg>

<svg width="108" height="80" viewBox="0 0 108 80" xmlns="http://www.w3.org/2000/svg"><title>Terminal</title><path d="M23.566 21.522c.132-.482.007-1.017-.37-1.395l-8.75-8.766c-.55-.55-1.467-.56-2.026 0-.563.564-.56 1.47 0 2.03l8.11 8.128-8.108 8.126c-.55.552-.56 1.47 0 2.03.563.565 1.466.56 2.026 0l8.75-8.767c.368-.37.494-.904.368-1.385zM0 11.04C0 4.943 4.928 0 11.01 0H96.36c6.08 0 11.01 4.944 11.01 11.04v57.92c0 6.097-4.927 11.04-11.01 11.04H11.01C4.93 80 0 75.056 0 68.96V11.04zm25.655 19.72c0-.67.54-1.21 1.205-1.21h13.278c.666 0 1.205.537 1.205 1.21 0 .667-.54 1.208-1.205 1.208H26.86c-.665 0-1.205-.536-1.205-1.21z" fill="#000" fill-rule="evenodd"/></svg>
